flaticon/gastronomy/onion-1.svg

<svg xmlns="http://www.w3.org/2000/svg" width="32" height="32" viewBox="0 0 24 24">
    <path d="M 13.058594 2.613281 L 13.058594 0.425781 C 13.058594 0.277344 12.984375 0.140625 12.859375 0.0625 C 12.734375 -0.015625 12.578125 -0.0195312 12.445312 0.0429688 L 10.75 0.894531 C 10.605469 0.964844 10.515625 1.113281 10.515625 1.273438 L 10.515625 2.664062 C 5.8125 3.402344 2.304688 7.609375 2.464844 12.410156 C 2.601562 16.566406 5.5 20.117188 9.371094 21.246094 L 9.175781 21.277344 C 8.941406 21.316406 8.785156 21.535156 8.824219 21.765625 C 8.859375 21.972656 9.039062 22.121094 9.242188 22.121094 C 9.265625 22.121094 9.289062 22.117188 9.3125 22.113281 L 10.976562 21.835938 L 10.132812 22.683594 C 9.964844 22.847656 9.964844 23.117188 10.132812 23.28125 C 10.214844 23.363281 10.320312 23.40625 10.429688 23.40625 C 10.539062 23.40625 10.648438 23.363281 10.730469 23.28125 L 11.789062 22.222656 L 11.789062 23.574219 C 11.789062 23.808594 11.976562 24 12.210938 24 C 12.445312 24 12.636719 23.808594 12.636719 23.574219 L 12.636719 22.226562 L 13.691406 23.28125 C 13.777344 23.363281 13.882812 23.40625 13.992188 23.40625 C 14.101562 23.40625 14.210938 23.363281 14.292969 23.28125 C 14.457031 23.117188 14.457031 22.847656 14.292969 22.683594 L 13.5 21.890625 L 15.097656 22.210938 C 15.125 22.214844 15.152344 22.21875 15.179688 22.21875 C 15.378906 22.21875 15.554688 22.078125 15.59375 21.878906 C 15.640625 21.648438 15.492188 21.425781 15.261719 21.378906 L 14.648438 21.257812 C 16.082031 20.84375 17.40625 20.09375 18.53125 19.039062 C 20.445312 17.242188 21.539062 14.707031 21.539062 12.085938 C 21.539062 7.230469 17.847656 3.144531 13.058594 2.613281 Z M 17.949219 18.421875 C 17.089844 19.230469 16.097656 19.839844 15.027344 20.234375 C 16.503906 19.097656 17.746094 17.507812 18.46875 15.738281 C 19.535156 13.121094 19.414062 10.324219 18.128906 7.859375 C 18.019531 7.652344 17.765625 7.570312 17.554688 7.679688 C 17.347656 7.789062 17.265625 8.046875 17.375 8.253906 C 18.875 11.125 18.367188 13.734375 17.683594 15.417969 C 16.890625 17.359375 15.425781 19.066406 13.726562 20.109375 C 15.648438 17.222656 16.761719 11.507812 15.449219 7.089844 C 15.386719 6.863281 15.148438 6.734375 14.925781 6.800781 C 14.699219 6.867188 14.570312 7.105469 14.636719 7.328125 C 16.042969 12.070312 14.515625 17.902344 12.636719 20.164062 L 12.636719 5.511719 C 12.636719 5.277344 12.445312 5.089844 12.210938 5.089844 C 11.976562 5.089844 11.789062 5.277344 11.789062 5.511719 L 11.789062 20.164062 C 9.90625 17.902344 8.378906 12.070312 9.785156 7.328125 C 9.851562 7.105469 9.722656 6.867188 9.5 6.800781 C 9.273438 6.734375 9.039062 6.863281 8.972656 7.089844 C 7.664062 11.507812 8.773438 17.222656 10.695312 20.109375 C 9 19.066406 7.535156 17.359375 6.742188 15.417969 C 6.054688 13.734375 5.550781 11.125 7.046875 8.253906 C 7.15625 8.046875 7.074219 7.789062 6.867188 7.679688 C 6.660156 7.570312 6.40625 7.652344 6.296875 7.859375 C 5.011719 10.324219 4.890625 13.121094 5.957031 15.738281 C 6.726562 17.625 8.085938 19.308594 9.695312 20.460938 C 6.125 19.464844 3.441406 16.203125 3.3125 12.382812 C 3.164062 7.894531 6.535156 3.972656 10.988281 3.457031 C 11.203125 3.433594 11.363281 3.25 11.363281 3.035156 L 11.363281 1.535156 L 12.210938 1.109375 L 12.210938 3 C 12.210938 3.222656 12.382812 3.40625 12.605469 3.421875 C 17.140625 3.738281 20.691406 7.542969 20.691406 12.085938 C 20.691406 14.511719 19.71875 16.761719 17.949219 18.421875 Z M 17.949219 18.421875"/>
</svg>

<svg xmlns="http://www.w3.org/2000/svg" width="32" height="32" viewBox="0 0 24 24">
    <path d="M13.059 2.613V.426a.426.426 0 0 0-.2-.363.433.433 0 0 0-.414-.02L10.75.895a.42.42 0 0 0-.234.378v1.391c-4.704.738-8.211 4.945-8.051 9.746.137 4.156 3.035 7.707 6.906 8.836l-.195.031a.424.424 0 1 0 .136.836l1.665-.277-.844.848a.417.417 0 0 0 0 .597.417.417 0 0 0 .597 0l1.06-1.058v1.351a.423.423 0 1 0 .847 0v-1.347l1.054 1.054a.426.426 0 0 0 .602 0 .424.424 0 0 0 0-.597l-.793-.793 1.598.32c.027.004.054.008.082.008a.423.423 0 0 0 .082-.84l-.614-.121a9.53 9.53 0 0 0 3.883-2.219 9.57 9.57 0 0 0 3.008-6.953c0-4.856-3.691-8.941-8.48-9.473zm4.89 15.809a8.597 8.597 0 0 1-2.922 1.812 11.052 11.052 0 0 0 3.442-4.496c1.066-2.617.945-5.414-.34-7.879a.425.425 0 1 0-.754.395c1.5 2.871.992 5.48.309 7.164-.793 1.941-2.258 3.648-3.957 4.691 1.921-2.886 3.035-8.601 1.722-13.02a.42.42 0 0 0-.523-.288.425.425 0 0 0-.29.527c1.407 4.742-.12 10.574-2 12.836V5.512a.423.423 0 0 0-.847 0v14.652C9.906 17.902 8.38 12.07 9.785 7.328a.424.424 0 0 0-.813-.238c-1.308 4.418-.199 10.133 1.723 13.02-1.695-1.044-3.16-2.75-3.953-4.692-.687-1.684-1.191-4.293.305-7.164a.427.427 0 0 0-.18-.574.422.422 0 0 0-.57.18c-1.285 2.464-1.406 5.261-.34 7.878a11.06 11.06 0 0 0 3.738 4.723c-3.57-.996-6.254-4.258-6.383-8.078-.148-4.488 3.223-8.41 7.676-8.926a.423.423 0 0 0 .375-.422v-1.5l.848-.426V3c0 .223.172.406.394.422 4.536.316 8.086 4.121 8.086 8.664a8.602 8.602 0 0 1-2.742 6.336zm0 0"/>
</svg>
